X: 22369
T: Lad O'Beirne
R: hornpipe
M: 4/4
K: Gmajor
|B2|:(3dcB gd BdcB|Agfa gfge|dBed BdcA|FGAG (3FED (3CB,A,|
G,B,DG BGDB,|~C2 EG ~c2 dc|~B2 GB ~A2 FA|1 G2 GF GABc:|2 Ggfa gfga||
|:(3bag dg bgdg|(3agf df afdf|gafg egdB|GBAG (3FED (3CB,A,|
G,B,DG BGDB,|~C2 EG ~c2 dc|~B2 GB ~A2 FA|1 G2 GF G2 ga:|2 G2 GF GABc||

